X:143
T:Coopers
R:Hornpipe
B:The Athole Colletion
M:C|
L:1/8
K:D
AG|FA d2 d2 cB|cd e2 e2 dc|defd gfed|ec A2 ABAG|FA d2 d2 cB|cd e2 d2 ag|
fdec dABG|F2 D2 D2:||(3ABc|dAFA DFAd|edcB Aceg|fdAF DFAd|edcB A3A|
BGBd gfed|cAce d3A|BGAF GEAG|F2 D2 D2:|

